src/images/next.svg

<svg width="55" height="55" viewBox="0 0 55 55" fill="none" xmlns="http://www.w3.org/2000/svg">
<path fill-rule="evenodd" clip-rule="evenodd" d="M54.3911 27.6469C54.3911 34.7496 51.5465 41.5613 46.483 46.5836C41.4195 51.6059 34.552 54.4274 27.3911 54.4274C20.2303 54.4274 13.3627 51.6059 8.29923 46.5836C3.23575 41.5613 0.391113 34.7496 0.391113 27.6469C0.391113 20.5443 3.23575 13.7326 8.29923 8.71028C13.3627 3.68796 20.2303 0.866455 27.3911 0.866455C34.552 0.866455 41.4195 3.68796 46.483 8.71028C51.5465 13.7326 54.3911 20.5443 54.3911 27.6469ZM26.1964 36.5046C25.8795 36.8189 25.7015 37.2452 25.7015 37.6896C25.7015 38.1341 25.8795 38.5604 26.1964 38.8747C26.5132 39.189 26.943 39.3655 27.3911 39.3655C27.8392 39.3655 28.269 39.189 28.5859 38.8747L38.7109 28.832C38.868 28.6765 38.9927 28.4918 39.0778 28.2884C39.1628 28.0851 39.2066 27.8671 39.2066 27.6469C39.2066 27.4268 39.1628 27.2088 39.0778 27.0054C38.9927 26.8021 38.868 26.6174 38.7109 26.4619L28.5859 16.4192C28.429 16.2636 28.2427 16.1402 28.0377 16.0559C27.8327 15.9717 27.613 15.9284 27.3911 15.9284C27.1692 15.9284 26.9495 15.9717 26.7445 16.0559C26.5395 16.1402 26.3533 16.2636 26.1964 16.4192C26.0395 16.5748 25.915 16.7596 25.8301 16.9629C25.7452 17.1663 25.7015 17.3842 25.7015 17.6043C25.7015 17.8243 25.7452 18.0423 25.8301 18.2456C25.915 18.4489 26.0395 18.6337 26.1964 18.7893L33.4425 25.9732H17.2661C16.8186 25.9732 16.3893 26.1495 16.0729 26.4634C15.7564 26.7773 15.5786 27.203 15.5786 27.6469C15.5786 28.0909 15.7564 28.5166 16.0729 28.8305C16.3893 29.1444 16.8186 29.3207 17.2661 29.3207H33.4425L26.1964 36.5046Z" fill="#808080"/>
</svg>

<svg width="55" height="55" fill="none" xmlns="http://www.w3.org/2000/svg"><path fill-rule="evenodd" clip-rule="evenodd" d="M54.391 27.647a26.67 26.67 0 0 1-7.908 18.937 27.113 27.113 0 0 1-19.092 7.843A27.113 27.113 0 0 1 8.3 46.584 26.67 26.67 0 0 1 .391 27.647 26.67 26.67 0 0 1 8.3 8.71 27.113 27.113 0 0 1 27.391.866c7.161 0 14.029 2.822 19.092 7.844a26.67 26.67 0 0 1 7.908 18.937zm-28.195 8.858a1.669 1.669 0 0 0 0 2.37 1.696 1.696 0 0 0 2.39 0L38.71 28.832a1.674 1.674 0 0 0 .496-1.185 1.664 1.664 0 0 0-.496-1.185L28.586 16.419a1.692 1.692 0 0 0-1.195-.49 1.702 1.702 0 0 0-1.195.49 1.675 1.675 0 0 0-.495 1.185 1.664 1.664 0 0 0 .495 1.185l7.247 7.184H17.266c-.447 0-.877.177-1.193.49a1.667 1.667 0 0 0 0 2.367c.316.314.746.49 1.193.49h16.177l-7.247 7.185z" fill="gray"/></svg>
